X:1
T:Amoureuse
B:Suite d'Habiemont
O:Wallonie
M:2/4
L:1/8
Q:C4=48
K:G
B2 AG | FE D2 | GG/A/ Bd | cB BA | 
B2 AG | FE D2 | GG/A/ BB | A2 G z :|
dc/B/ AA | cB/A/ GG | BA/G/ FF | A/G/F/E/ D2 |
dc/B/ AA | cB/A/ GG | BA/G/ FA | A2 G z :|
W: Ah, pourquoi suis-je aime
W: D'une jeune et jolie allemande 
W: Je n'lui ai rien donne
W: Et mon coeur se tourmente.
W: Mon pere ne veut pas que je l'aime
W: Ma mere me dit que je l'oublierai, mais
W: Mon coeur epris ne bat que pour elle
W: Et je l'attends, fidele.
